static/assets/img/icons/theme/shopping/ticket.svg

<svg height="24" viewBox="0 0 24 24" width="24" xmlns="http://www.w3.org/2000/svg"><g fill="none" fill-rule="evenodd"><path d="m0 0h24v24h-24z" opacity="0"/><path d="m3 10.0500091v-2.0500091c0-.55228475.44771525-1 1-1h5v2c0 .55228475.44771525 1 1 1 .5522847 0 1-.44771525 1-1v-2h10c.5522847 0 1 .44771525 1 1v2.0500091c-1.1411202.2316351-2 1.2405119-2 2.4499909s.8588798 2.2183558 2 2.4499909v2.0500091c0 .5522847-.4477153 1-1 1h-10v-2c0-.5522847-.4477153-1-1-1-.55228475 0-1 .4477153-1 1v2h-5c-.55228475 0-1-.4477153-1-1v-2.0500091c1.14112016-.2316351 2-1.2405119 2-2.4499909s-.85887984-2.2183558-2-2.4499909zm7 .9499909c-.55228475 0-1 .4477153-1 1v1c0 .5522847.44771525 1 1 1 .5522847 0 1-.4477153 1-1v-1c0-.5522847-.4477153-1-1-1z" fill="#000" opacity=".3" transform="matrix(.70710678 -.70710678 .70710678 .70710678 -5.17767 12.5)"/></g></svg>

<svg width="24px" height="24px" viewBox="0 0 24 24" version="1.1" xmlns="http://www.w3.org/2000/svg" xmlns:xlink="http://www.w3.org/1999/xlink">
    <title>Icon For Ticket</title>
    <g stroke="none" stroke-width="1" fill="none" fill-rule="evenodd">
        <rect opacity="0" x="0" y="0" width="24" height="24"></rect>
        <path d="M3,10.0500091 L3,8 C3,7.44771525 3.44771525,7 4,7 L9,7 L9,9 C9,9.55228475 9.44771525,10 10,10 C10.5522847,10 11,9.55228475 11,9 L11,7 L21,7 C21.5522847,7 22,7.44771525 22,8 L22,10.0500091 C20.8588798,10.2816442 20,11.290521 20,12.5 C20,13.709479 20.8588798,14.7183558 22,14.9499909 L22,17 C22,17.5522847 21.5522847,18 21,18 L11,18 L11,16 C11,15.4477153 10.5522847,15 10,15 C9.44771525,15 9,15.4477153 9,16 L9,18 L4,18 C3.44771525,18 3,17.5522847 3,17 L3,14.9499909 C4.14112016,14.7183558 5,13.709479 5,12.5 C5,11.290521 4.14112016,10.2816442 3,10.0500091 Z M10,11 C9.44771525,11 9,11.4477153 9,12 L9,13 C9,13.5522847 9.44771525,14 10,14 C10.5522847,14 11,13.5522847 11,13 L11,12 C11,11.4477153 10.5522847,11 10,11 Z" fill="#000000" opacity="0.3" transform="translate(12.500000, 12.500000) rotate(-45.000000) translate(-12.500000, -12.500000) "></path>
    </g>
</svg>
